; generated by Slic3r 1.2.9 on 2017-03-14 at 14:21:59

; external perimeters extrusion width = 0.50mm
; perimeters extrusion width = 0.72mm
; infill extrusion width = 0.72mm
; solid infill extrusion width = 0.72mm
; top infill extrusion width = 0.72mm

M107
M104 S200 ; set temperature
G28 ; home all axes
G1 Z5 F5000 ; lift nozzle

M109 S200 ; wait for temperature to be reached
G21 ; set units to millimeters
G90 ; use absolute coordinates
M82 ; use absolute distances for extrusion
G92 E0
G1 Z0.350 F7800.000
G1 E-2.00000 F2400.00000
G92 E0
G1 X89.915 Y85.753 F7800.000
G1 E2.00000 F2400.00000
G1 X91.668 Y84.274 E2.07096 F1800.000
G1 X93.820 Y83.481 E2.14192
G1 X95.000 Y83.375 E2.17858
G1 X105.000 Y83.375 E2.48799
G1 X107.259 Y83.772 E2.55895
G1 X109.247 Y84.915 E2.62991 F1800.000
G1 X110.726 Y86.668 E2.70088
G1 X111.519 Y88.820 E2.77184
G1 X111.625 Y90.000 E2.80849
G1 X111.625 Y110.000 E3.42732
G1 X111.228 Y112.259 E3.49828
G1 X110.085 Y114.247 E3.56924
G1 X108.332 Y115.726 E3.64020
G1 X106.180 Y116.519 E3.71116
G1 X105.000 Y116.625 E3.74782
G1 X95.000 Y116.625 E4.05723
G1 X92.741 Y116.228 E4.12819
G1 X90.753 Y115.085 E4.19915
G1 X89.274 Y113.332 E4.27012
G1 X88.481 Y111.180 E4.34108
G1 X88.375 Y110.000 E4.37773
G1 X88.375 Y90.000 E4.99656
G1 X88.772 Y87.741 E5.06752
G1 X89.878 Y85.818 E5.13616
G1 E3.13616 F2400.00000
G92 E0
G1 X103.400 Y108.400 F7800.000
G1 E2.00000 F2400.00000
G1 X96.600 Y108.400 E2.21041 F1800.000
G1 X96.600 Y91.600 E2.73024
G1 X103.400 Y91.600 E2.94066
G1 X103.400 Y108.325 E3.45816
G1 X104.025 Y109.025 F7800.000
G1 X95.975 Y109.025 E3.70725 F1800.000
G1 X95.975 Y90.975 E4.26575
G1 X104.025 Y90.975 E4.51483
G1 X104.025 Y108.950 E5.07101
G1 X104.650 Y109.650 F7800.000
G1 X95.350 Y109.650 E5.35876 F1800.000
G1 X95.350 Y90.350 E5.95593
G1 X104.650 Y90.350 E6.24368
G1 X104.650 Y109.575 E6.83853
G1 X104.217 Y109.400 F7800.000
G1 X96.978 Y107.717 F7800.000
G1 X97.283 Y108.022 E6.85205 F1800.000
G1 X98.178 Y108.022 E6.88009
G1 X96.978 Y106.822 E6.93325
G1 X96.978 Y105.927 E6.96129
G1 X99.073 Y108.022 E7.05411
G1 X99.968 Y108.022 E7.08214
G1 X96.978 Y105.032 E7.21461
G1 X96.978 Y104.137 E7.24265
G1 X100.863 Y108.022 E7.41476
G1 X101.758 Y108.022 E7.44280
G1 X96.978 Y103.242 E7.65456
G1 X96.978 Y102.347 E7.68260
G1 X102.653 Y108.022 E7.93401
G1 X103.022 Y107.496 E7.95414
G1 X96.978 Y101.453 E8.22191
G1 X96.978 Y100.558 E8.24994
G1 X103.022 Y106.601 E8.51771
G1 X103.022 Y105.706 E8.54575
G1 X96.978 Y99.663 E8.81351
G1 X96.978 Y98.768 E8.84155
G1 X103.022 Y104.811 E9.10932
G1 X103.022 Y103.916 E9.13735
G1 X96.978 Y97.873 E9.40512
G1 X96.978 Y96.978 E9.43316
G1 X103.022 Y103.022 E9.70093
G1 X103.022 Y102.127 E9.72896
G1 X96.978 Y96.084 E9.99673
G1 X96.978 Y95.189 E10.02477
G1 X103.022 Y101.232 E10.29253
G1 X103.022 Y100.337 E10.32057
G1 X96.978 Y94.294 E10.58834
G1 X96.978 Y93.399 E10.61638
G1 X103.022 Y99.442 E10.88414
G1 X103.022 Y98.547 E10.91218
G1 X96.978 Y92.504 E11.17995
G1 X97.347 Y91.978 E11.20007
G1 X103.022 Y97.653 E11.45149
G1 X103.022 Y96.758 E11.47952
G1 X98.242 Y91.978 E11.69129
G1 X99.137 Y91.978 E11.71933
G1 X103.022 Y95.863 E11.89144
G1 X103.022 Y94.968 E11.91948
G1 X100.032 Y91.978 E12.05194
G1 X100.927 Y91.978 E12.07998
G1 X103.022 Y94.073 E12.17280
G1 X103.022 Y93.178 E12.20084
G1 X101.822 Y91.978 E12.25400
G1 X102.717 Y91.978 E12.28204
G1 X103.022 Y92.283 E12.29556
G1 Z0.650 F7800.000
G1 X103.550 Y108.550 F7800.000
G1 X96.450 Y108.550 E12.49281 F3600.000
G1 X96.450 Y91.450 E12.96783
G1 X103.550 Y91.450 E13.16508
G1 X103.550 Y108.475 E13.63802
G1 X104.205 Y109.205 F7800.000
G1 X95.795 Y109.205 E13.87163 F3600.000
G1 X95.795 Y90.795 E14.38301
G1 X104.205 Y90.795 E14.61662
G1 X104.205 Y109.130 E15.12592
G1 X104.750 Y109.750 F7800.000
G1 X95.250 Y109.750 E15.30156 F1800.000
G1 X95.250 Y90.250 E15.66208
G1 X104.750 Y90.250 E15.83772
G1 X104.750 Y109.675 E16.19686
G1 X104.317 Y109.500 F7800.000
G1 X102.835 Y108.153 F7800.000
G1 X103.153 Y107.835 E16.20974 F1200.000
G1 X103.153 Y106.880 E16.23714
G1 X101.880 Y108.153 E16.28877
G1 X100.924 Y108.153 E16.31617
G1 X103.153 Y105.924 E16.40655
G1 X103.153 Y104.969 E16.43395
G1 X99.969 Y108.153 E16.56307
G1 X99.013 Y108.153 E16.59047
G1 X103.153 Y104.013 E16.75835
G1 X103.153 Y103.058 E16.78575
G1 X98.058 Y108.153 E16.99237
G1 X97.102 Y108.153 E17.01977
G1 X103.153 Y102.102 E17.26515
G1 X103.153 Y101.147 E17.29255
G1 X96.847 Y107.453 E17.54827
G1 X96.847 Y106.497 E17.57567
G1 X103.153 Y100.191 E17.83139
G1 X103.153 Y99.236 E17.85879
G1 X96.847 Y105.542 E18.11452
G1 X96.847 Y104.586 E18.14192
G1 X103.153 Y98.280 E18.39764
G1 X103.153 Y97.325 E18.42504
G1 X96.847 Y103.631 E18.68076
G1 X96.847 Y102.675 E18.70816
G1 X103.153 Y96.369 E18.96389
G1 X103.153 Y95.414 E18.99129
G1 X96.847 Y101.720 E19.24701
G1 X96.847 Y100.764 E19.27441
G1 X103.153 Y94.458 E19.53014
G1 X103.153 Y93.503 E19.55753
G1 X96.847 Y99.809 E19.81326
G1 X96.847 Y98.853 E19.84066
G1 X103.153 Y92.547 E20.09638
G1 X102.898 Y91.847 E20.11775
G1 X96.847 Y97.898 E20.36313
G1 X96.847 Y96.942 E20.39053
G1 X101.942 Y91.847 E20.59715
G1 X100.987 Y91.847 E20.62455
G1 X96.847 Y95.987 E20.79242
G1 X96.847 Y95.031 E20.81982
G1 X100.031 Y91.847 E20.94895
G1 X99.076 Y91.847 E20.97635
G1 X96.847 Y94.076 E21.06673
G1 X96.847 Y93.120 E21.09413
G1 X98.120 Y91.847 E21.14576
G1 X97.165 Y91.847 E21.17316
G1 X96.847 Y92.165 E21.18604
G1 Z0.950 F7800.000
G1 X103.550 Y108.550 F7800.000
G1 X96.450 Y108.550 E21.38329 F3600.000
G1 X96.450 Y91.450 E21.85831
G1 X103.550 Y91.450 E22.05556
G1 X103.550 Y108.475 E22.52850
G1 X104.205 Y109.205 F7800.000
G1 X95.795 Y109.205 E22.76211 F3600.000
G1 X95.795 Y90.795 E23.27349
G1 X104.205 Y90.795 E23.50710
G1 X104.205 Y109.130 E24.01640
G1 X104.750 Y109.750 F7800.000
G1 X95.250 Y109.750 E24.19204 F1800.000
G1 X95.250 Y90.250 E24.55256
G1 X104.750 Y90.250 E24.72820
G1 X104.750 Y109.675 E25.08734
G1 X104.317 Y109.500 F7800.000
G1 X97.165 Y108.153 F7800.000
G1 X96.847 Y107.835 E25.10022 F1200.000
G1 X96.847 Y106.880 E25.12762
G1 X98.120 Y108.153 E25.17925
G1 X99.076 Y108.153 E25.20665
G1 X96.847 Y105.924 E25.29703
G1 X96.847 Y104.969 E25.32443
G1 X100.031 Y108.153 E25.45355
G1 X100.987 Y108.153 E25.48095
G1 X96.847 Y104.013 E25.64883
G1 X96.847 Y103.058 E25.67623
G1 X101.942 Y108.153 E25.88285
G1 X102.898 Y108.153 E25.91025
G1 X96.847 Y102.102 E26.15562
G1 X96.847 Y101.147 E26.18302
G1 X103.153 Y107.453 E26.43875
G1 X103.153 Y106.497 E26.46615
G1 X96.847 Y100.191 E26.72187
G1 X96.847 Y99.236 E26.74927
G1 X103.153 Y105.542 E27.00499
G1 X103.153 Y104.586 E27.03239
G1 X96.847 Y98.280 E27.28812
G1 X96.847 Y97.325 E27.31552
G1 X103.153 Y103.631 E27.57124
G1 X103.153 Y102.675 E27.59864
G1 X96.847 Y96.369 E27.85436
G1 X96.847 Y95.414 E27.88176
G1 X103.153 Y101.720 E28.13749
G1 X103.153 Y100.764 E28.16489
G1 X96.847 Y94.458 E28.42061
G1 X96.847 Y93.503 E28.44801
G1 X103.153 Y99.809 E28.70374
G1 X103.153 Y98.853 E28.73113
G1 X96.847 Y92.547 E28.98686
G1 X97.102 Y91.847 E29.00823
G1 X103.153 Y97.898 E29.25360
G1 X103.153 Y96.942 E29.28100
G1 X98.058 Y91.847 E29.48763
G1 X99.013 Y91.847 E29.51503
G1 X103.153 Y95.987 E29.68290
G1 X103.153 Y95.031 E29.71030
G1 X99.969 Y91.847 E29.83943
G1 X100.924 Y91.847 E29.86683
G1 X103.153 Y94.076 E29.95721
G1 X103.153 Y93.120 E29.98461
G1 X101.880 Y91.847 E30.03624
G1 X102.835 Y91.847 E30.06364
G1 X103.153 Y92.165 E30.07652
M106 S255
G1 Z1.250 F7800.000
G1 X103.550 Y108.550 F7800.000
G1 X96.450 Y108.550 E30.27377 F3157.288
G1 X96.450 Y91.450 E30.74879
G1 X103.550 Y91.450 E30.94604
G1 X103.550 Y108.475 E31.41898
G1 X104.205 Y109.205 F7800.000
G1 X95.795 Y109.205 E31.65259 F3157.288
G1 X95.795 Y90.795 E32.16397
G1 X104.205 Y90.795 E32.39758
G1 X104.205 Y109.130 E32.90688
G1 X104.750 Y109.750 F7800.000
G1 X95.250 Y109.750 E33.08252 F1578.644
G1 X95.250 Y90.250 E33.44304
G1 X104.750 Y90.250 E33.61868
G1 X104.750 Y109.675 E33.97782
G1 X104.317 Y109.500 F7800.000
G1 X102.994 Y107.994 F7800.000
G1 X102.994 Y107.106 E34.00248 F4209.717
G1 X102.106 Y107.994 E34.03736
G1 X102.994 Y107.994 E34.06202
G1 X100.749 Y107.994 F7800.000
G1 X98.900 Y107.498 E34.11521 F4209.717
G1 X98.404 Y107.994 E34.13468
G1 X100.749 Y107.994 E34.19983
G1 X102.994 Y95.044 F7800.000
G1 X102.287 Y94.855 E34.22015 F4209.717
G1 X99.348 Y97.794 E34.33561
G1 X100.131 Y100.714 E34.41958
G1 X97.192 Y103.653 E34.53505
G1 X97.006 Y103.603 E34.54039
G1 X97.006 Y107.994 E34.66236
G1 X97.478 Y107.994 E34.67548
G1 X98.437 Y107.036 E34.71313
G1 X97.654 Y104.116 E34.79710
G1 X100.594 Y101.177 E34.91256
G1 X102.994 Y101.820 E34.98160
G1 X102.994 Y95.044 E35.16982
G1 X101.825 Y94.392 F7800.000
G1 X101.185 Y92.006 E35.23843 F4209.717
G1 X97.006 Y92.006 E35.35453
G1 X97.006 Y96.827 E35.48846
G1 X98.886 Y97.331 E35.54251
G1 X101.825 Y94.392 E35.65797
G1 Z1.550 F7800.000
G1 X103.550 Y108.550 F7800.000
G1 X96.450 Y108.550 E35.85522 F3181.215
G1 X96.450 Y91.450 E36.33025
G1 X103.550 Y91.450 E36.52749
G1 X103.550 Y108.475 E37.00043
G1 X104.205 Y109.205 F7800.000
G1 X95.795 Y109.205 E37.23404 F3181.215
G1 X95.795 Y90.795 E37.74543
G1 X104.205 Y90.795 E37.97903
G1 X104.205 Y109.130 E38.48834
G1 X104.750 Y109.750 F7800.000
G1 X95.250 Y109.750 E38.66398 F1590.607
G1 X95.250 Y90.250 E39.02450
G1 X104.750 Y90.250 E39.20014
G1 X104.750 Y109.675 E39.55927
G1 X104.317 Y109.500 F7800.000
G1 X97.192 Y103.653 F7800.000
G1 X97.006 Y103.603 E39.56461 F4241.620
G1 X97.006 Y107.994 E39.68658
G1 X97.941 Y107.994 E39.71256
G1 X98.267 Y107.668 E39.72538
G1 X97.192 Y103.653 E39.84084
G1 X101.655 Y95.024 F7800.000
G1 X100.847 Y92.006 E39.92763 F4241.620
G1 X97.006 Y92.006 E40.03432
G1 X97.006 Y96.827 E40.16825
G1 X98.886 Y97.331 E40.22230
G1 X99.961 Y101.346 E40.33776
G1 X97.824 Y103.484 E40.42173
G1 X98.900 Y107.498 E40.53720
G1 X100.749 Y107.994 E40.59039
G1 X102.569 Y107.994 E40.64094
G1 X102.994 Y107.569 E40.65764
G1 X102.994 Y101.820 E40.81734
G1 X100.594 Y101.177 E40.88638
G1 X99.518 Y97.162 E41.00184
G1 X101.655 Y95.024 E41.08581
G1 X102.994 Y95.044 F7800.000
G1 X102.994 Y92.006 E41.17020 F4241.620
G1 X101.524 Y92.006 E41.21103
G1 X102.287 Y94.855 E41.29295
G1 X102.994 Y95.044 E41.31328
G1 Z1.850 F7800.000
G1 X103.550 Y108.550 F7800.000
G1 X96.450 Y108.550 E41.51052 F3155.747
G1 X96.450 Y91.450 E41.98555
G1 X103.550 Y91.450 E42.18279
G1 X103.550 Y108.475 E42.65574
G1 X104.205 Y109.205 F7800.000
G1 X95.795 Y109.205 E42.88934 F3155.747
G1 X95.795 Y90.795 E43.40073
G1 X104.205 Y90.795 E43.63434
G1 X104.205 Y109.130 E44.14364
G1 X104.750 Y109.750 F7800.000
G1 X95.250 Y109.750 E44.31928 F1577.873
G1 X95.250 Y90.250 E44.67980
G1 X104.750 Y90.250 E44.85544
G1 X104.750 Y109.675 E45.21457
G1 X104.317 Y109.500 F7800.000
G1 X102.994 Y107.994 F7800.000
G1 X102.994 Y107.569 E45.22638 F4207.662
G1 X102.569 Y107.994 E45.24307
G1 X102.994 Y107.994 E45.25488
G1 X97.654 Y104.116 F7800.000
G1 X97.006 Y103.942 E45.27353 F4207.662
G1 X97.006 Y107.994 E45.38609
G1 X97.941 Y107.994 E45.41207
G1 X98.267 Y107.668 E45.42488
G1 X99.485 Y107.994 E45.45990
G1 X102.014 Y107.994 E45.53014
G1 X98.437 Y107.036 E45.63300
G1 X97.654 Y104.116 E45.71698
G1 X99.348 Y97.794 F7800.000
G1 X97.006 Y97.166 E45.78434 F4207.662
G1 X97.006 Y103.264 E45.95373
G1 X97.824 Y103.484 E45.97725
G1 X99.961 Y101.346 E46.06123
G1 X102.994 Y102.159 E46.14844
G1 X102.994 Y101.481 E46.16727
G1 X100.131 Y100.714 E46.24961
G1 X99.348 Y97.794 E46.33358
G1 X101.825 Y94.392 F7800.000
G1 X101.185 Y92.006 E46.40220 F4207.662
G1 X97.006 Y92.006 E46.51829
G1 X97.006 Y96.488 E46.64281
G1 X99.518 Y97.162 E46.71504
G1 X101.655 Y95.024 E46.79902
G1 X102.994 Y95.383 E46.83752
G1 X102.994 Y94.705 E46.85634
G1 X101.825 Y94.392 E46.88997
G1 Z2.150 F7800.000
G1 X103.550 Y108.550 F7800.000
G1 X96.450 Y108.550 E47.08722 F3157.288
G1 X96.450 Y91.450 E47.56224
G1 X103.550 Y91.450 E47.75949
G1 X103.550 Y108.475 E48.23243
G1 X104.205 Y109.205 F7800.000
G1 X95.795 Y109.205 E48.46604 F3157.288
G1 X95.795 Y90.795 E48.97742
G1 X104.205 Y90.795 E49.21103
G1 X104.205 Y109.130 E49.72034
G1 X104.750 Y109.750 F7800.000
G1 X95.250 Y109.750 E49.89597 F1578.644
G1 X95.250 Y90.250 E50.25649
G1 X104.750 Y90.250 E50.43213
G1 X104.750 Y109.675 E50.79127
G1 X104.317 Y109.500 F7800.000
G1 X102.994 Y107.994 F7800.000
G1 X102.994 Y107.106 E50.81593 F4209.717
G1 X102.106 Y107.994 E50.85081
G1 X102.994 Y107.994 E50.87547
G1 X100.749 Y107.994 F7800.000
G1 X98.900 Y107.498 E50.92866 F4209.717
G1 X98.404 Y107.994 E50.94813
G1 X100.749 Y107.994 E51.01328
G1 X102.994 Y95.044 F7800.000
G1 X102.287 Y94.855 E51.03360 F4209.717
G1 X99.348 Y97.794 E51.14906
G1 X100.131 Y100.714 E51.23303
G1 X97.192 Y103.653 E51.34850
G1 X97.006 Y103.603 E51.35384
G1 X97.006 Y107.994 E51.47581
G1 X97.478 Y107.994 E51.48893
G1 X98.437 Y107.036 E51.52658
G1 X97.654 Y104.116 E51.61055
G1 X100.594 Y101.177 E51.72602
G1 X102.994 Y101.820 E51.79505
G1 X102.994 Y95.044 E51.98327
G1 X101.825 Y94.392 F7800.000
G1 X101.185 Y92.006 E52.05188 F4209.717
G1 X97.006 Y92.006 E52.16798
G1 X97.006 Y96.827 E52.30191
G1 X98.886 Y97.331 E52.35596
G1 X101.825 Y94.392 E52.47142
G1 Z2.450 F7800.000
G1 X103.550 Y108.550 F7800.000
G1 X96.450 Y108.550 E52.66867 F3181.215
G1 X96.450 Y91.450 E53.14370
G1 X103.550 Y91.450 E53.34094
G1 X103.550 Y108.475 E53.81388
G1 X104.205 Y109.205 F7800.000
G1 X95.795 Y109.205 E54.04749 F3181.215
G1 X95.795 Y90.795 E54.55888
G1 X104.205 Y90.795 E54.79249
G1 X104.205 Y109.130 E55.30179
G1 X104.750 Y109.750 F7800.000
G1 X95.250 Y109.750 E55.47743 F1590.607
G1 X95.250 Y90.250 E55.83795
G1 X104.750 Y90.250 E56.01359
G1 X104.750 Y109.675 E56.37272
G1 X104.317 Y109.500 F7800.000
G1 X97.192 Y103.653 F7800.000
G1 X97.006 Y103.603 E56.37806 F4241.620
G1 X97.006 Y107.994 E56.50003
G1 X97.941 Y107.994 E56.52601
G1 X98.267 Y107.668 E56.53883
G1 X97.192 Y103.653 E56.65429
G1 X101.655 Y95.024 F7800.000
G1 X100.847 Y92.006 E56.74108 F4241.620
G1 X97.006 Y92.006 E56.84777
G1 X97.006 Y96.827 E56.98170
G1 X98.886 Y97.331 E57.03575
G1 X99.961 Y101.346 E57.15121
G1 X97.824 Y103.484 E57.23518
G1 X98.900 Y107.498 E57.35065
G1 X100.749 Y107.994 E57.40384
G1 X102.569 Y107.994 E57.45439
G1 X102.994 Y107.569 E57.47109
G1 X102.994 Y101.820 E57.63079
G1 X100.594 Y101.177 E57.69983
G1 X99.518 Y97.162 E57.81529
G1 X101.655 Y95.024 E57.89926
G1 X102.994 Y95.044 F7800.000
G1 X102.994 Y92.006 E57.98365 F4241.620
G1 X101.524 Y92.006 E58.02448
G1 X102.287 Y94.855 E58.10640
G1 X102.994 Y95.044 E58.12673
G1 Z2.750 F7800.000
G1 X103.550 Y108.550 F7800.000
G1 X96.450 Y108.550 E58.32397 F3155.747
G1 X96.450 Y91.450 E58.79900
G1 X103.550 Y91.450 E58.99624
G1 X103.550 Y108.475 E59.46919
G1 X104.205 Y109.205 F7800.000
G1 X95.795 Y109.205 E59.70279 F3155.747
G1 X95.795 Y90.795 E60.21418
G1 X104.205 Y90.795 E60.44779
G1 X104.205 Y109.130 E60.95709
G1 X104.750 Y109.750 F7800.000
G1 X95.250 Y109.750 E61.13273 F1577.873
G1 X95.250 Y90.250 E61.49325
G1 X104.750 Y90.250 E61.66889
G1 X104.750 Y109.675 E62.02802
G1 X104.317 Y109.500 F7800.000
G1 X102.994 Y107.994 F7800.000
G1 X102.994 Y107.569 E62.03983 F4207.662
G1 X102.569 Y107.994 E62.05652
G1 X102.994 Y107.994 E62.06833
G1 X97.654 Y104.116 F7800.000
G1 X97.006 Y103.942 E62.08698 F4207.662
G1 X97.006 Y107.994 E62.19954
G1 X97.941 Y107.994 E62.22552
G1 X98.267 Y107.668 E62.23833
G1 X99.485 Y107.994 E62.27335
G1 X102.014 Y107.994 E62.34359
G1 X98.437 Y107.036 E62.44645
G1 X97.654 Y104.116 E62.53043
G1 X99.348 Y97.794 F7800.000
G1 X97.006 Y97.166 E62.59779 F4207.662
G1 X97.006 Y103.264 E62.76719
G1 X97.824 Y103.484 E62.79071
G1 X99.961 Y101.346 E62.87468
G1 X102.994 Y102.159 E62.96189
G1 X102.994 Y101.481 E62.98072
G1 X100.131 Y100.714 E63.06306
G1 X99.348 Y97.794 E63.14703
G1 X101.825 Y94.392 F7800.000
G1 X101.185 Y92.006 E63.21565 F4207.662
G1 X97.006 Y92.006 E63.33174
G1 X97.006 Y96.488 E63.45626
G1 X99.518 Y97.162 E63.52850
G1 X101.655 Y95.024 E63.61247
G1 X102.994 Y95.383 E63.65097
G1 X102.994 Y94.705 E63.66979
G1 X101.825 Y94.392 E63.70342
G1 Z3.050 F7800.000
G1 X103.550 Y108.550 F7800.000
G1 X96.450 Y108.550 E63.90067 F3157.288
G1 X96.450 Y91.450 E64.37569
G1 X103.550 Y91.450 E64.57294
G1 X103.550 Y108.475 E65.04588
